packages/tokens/icons/critical/size24Px.svg

<svg viewBox="0 0 24 24" fill="none" xmlns="http://www.w3.org/2000/svg" width="1em" height="1em"><path d="M15.7664 2.5C16.1903 2.5 16.5944 2.67934 16.8788 2.99367L21.1123 7.6732C21.3618 7.94899 21.5 8.30763 21.5 8.67954L21.5 15.0067C21.5 15.3641 21.3724 15.7097 21.1403 15.9813L16.8727 20.9746C16.5877 21.308 16.1711 21.5 15.7324 21.5L8.36412 21.5C7.93069 21.5 7.51845 21.3125 7.23359 20.9858L2.86947 15.9813C2.63125 15.7081 2.5 15.3579 2.5 14.9954L2.5 8.69106C2.5 8.31397 2.64203 7.95072 2.8978 7.67364L7.228 2.98258C7.51196 2.67496 7.91156 2.5 8.33021 2.5L15.7664 2.5Z" stroke="currentColor" stroke-linecap="round"/><path d="M12 14.5L12 5.49997" stroke="currentColor" stroke-linecap="round"/><path d="M12 17.5L12 18.5" stroke="currentColor" stroke-linecap="round"/></svg>

<svg xmlns="http://www.w3.org/2000/svg" fill="none" viewBox="0 0 24 24" width="1em" height="1em"><path stroke="currentColor" stroke-linecap="round" d="M15.766 2.5a1.5 1.5 0 0 1 1.113.494l4.233 4.68A1.5 1.5 0 0 1 21.5 8.68v6.327a1.5 1.5 0 0 1-.36.974l-4.267 4.994a1.5 1.5 0 0 1-1.14.525h-7.37a1.5 1.5 0 0 1-1.13-.514L2.869 15.98a1.5 1.5 0 0 1-.369-.986V8.691c0-.377.142-.74.398-1.017l4.33-4.691A1.5 1.5 0 0 1 8.33 2.5h7.436ZM12 14.5v-9m0 12v1"/></svg>
